X:9321
T:Lass of Richmond Hill. JC.010
M:2/4
L:1/8
Q:180
S:John Clare,Poet,Helpston. (1793-1864)
R:Air
O:England
A:Northamptonshire
N:
Z:P Headford
K:D
A2|Addd|{e}dc/d/ eg|fdBe|(d2{ed} c)A|Addd|{e}dc/d/ ed|
cAB^G|A2zd|!
cA Ac|cA Ac|cegf|f2{gf} ed|cA Ad|
cA a d|cdec|d2zA|!
Addf|f3e|ceeg|g3e|f>edc|
dB A G|FAEc|d3|]
W:Song text exists. See Deacon.


